static/assets/images/protocols/agave-finance-mono.svg

<svg width="375" height="356" viewBox="0 0 375 356" fill="none" xmlns="http://www.w3.org/2000/svg">
<path fill-rule="evenodd" clip-rule="evenodd" d="M66.3102 126.901C65.7183 119.396 65.3444 111.876 65.1888 104.35C64.5314 71.3595 68.2514 49.2342 68.4061 48.3056L71.3527 30.9939L85.5908 41.2865C86.3641 41.8282 104.516 55.0229 127.168 79.0518C129.805 81.8378 132.597 84.8637 135.474 88.1294L134.856 90.1028C126.783 116.181 121.937 143.15 120.424 170.408C109.167 159.247 97.1223 148.91 84.3843 139.476C78.485 135.107 72.4577 130.913 66.3102 126.901ZM308.581 126.901C309.239 118.752 309.548 111.145 309.703 104.35C310.36 71.3595 306.64 49.2342 306.486 48.3056L303.539 30.9939L289.309 41.2865C288.528 41.8282 270.376 55.0229 247.724 79.0518C244.905 82.0292 242.138 85.0555 239.425 88.1294L240.044 90.1415C248.113 116.22 252.957 143.189 254.468 170.447C265.725 159.286 277.769 148.949 290.507 139.515C296.407 135.145 302.434 130.952 308.581 126.939V126.901Z" fill="black"/>
<path fill-rule="evenodd" clip-rule="evenodd" d="M187.446 355.83C99.9139 360.017 12.3742 286.784 1.19875 121.871L0 104.327L16.2875 110.967C19.1645 112.127 81.4531 137.975 130.091 195.497C130.014 192.82 129.975 190.104 129.975 187.387C129.975 119.773 152.125 56.7409 187.5 0C222.875 56.7022 245.017 119.773 245.017 187.387C245.017 190.096 244.978 192.82 244.901 195.497C293.547 137.975 355.835 112.127 358.705 110.967L375 104.327L373.793 121.871C362.618 286.784 275.071 360.024 187.531 355.83H187.446ZM168.173 283.016C163.711 283.016 161.893 284.764 161.893 289.036C161.893 299.437 173.37 307.857 187.454 307.857C201.568 307.857 213.014 299.437 213.014 289.036C213.014 284.764 211.189 283.054 206.726 283.054C204.36 283.132 201.955 283.364 199.634 283.797L199.402 283.836C195.443 284.494 191.444 284.842 187.454 284.919C183.437 284.849 179.43 284.487 175.466 283.836C173.041 283.422 170.592 283.164 168.134 283.062L168.173 283.016ZM122.211 241.528C124.911 241.526 127.585 242.056 130.08 243.089C132.575 244.122 134.842 245.638 136.751 247.548C138.66 249.459 140.174 251.727 141.207 254.223C142.239 256.72 142.769 259.396 142.767 262.098C142.769 264.799 142.239 267.475 141.207 269.972C140.174 272.468 138.66 274.737 136.751 276.647C134.842 278.558 132.575 280.073 130.08 281.106C127.585 282.139 124.911 282.669 122.211 282.667C119.511 282.669 116.837 282.139 114.342 281.106C111.847 280.073 109.58 278.558 107.67 276.647C105.761 274.737 104.247 272.468 103.215 269.972C102.182 267.475 101.652 264.799 101.654 262.098C101.652 259.396 102.182 256.72 103.215 254.223C104.247 251.727 105.761 249.459 107.67 247.548C109.58 245.638 111.847 244.122 114.342 243.089C116.837 242.056 119.511 241.526 122.211 241.528ZM252.65 241.528C255.351 241.525 258.026 242.055 260.522 243.087C263.017 244.12 265.285 245.635 267.195 247.545C269.105 249.456 270.62 251.725 271.653 254.222C272.686 256.719 273.217 259.395 273.215 262.098C273.217 264.8 272.686 267.476 271.653 269.973C270.62 272.471 269.105 274.739 267.195 276.65C265.285 278.56 263.017 280.075 260.522 281.108C258.026 282.14 255.351 282.67 252.65 282.667C249.95 282.669 247.276 282.139 244.781 281.106C242.286 280.073 240.019 278.558 238.11 276.647C236.201 274.737 234.686 272.468 233.654 269.972C232.622 267.475 232.091 264.799 232.093 262.098C232.091 259.396 232.622 256.72 233.654 254.223C234.686 251.727 236.201 249.459 238.11 247.548C240.019 245.638 242.286 244.122 244.781 243.089C247.276 242.056 249.95 241.526 252.65 241.528Z" fill="black"/>
</svg>

<svg xmlns="http://www.w3.org/2000/svg" fill="none" viewBox="0 0 375 356"><path fill="#000" fill-rule="evenodd" d="M66.31 126.901a389 389 0 0 1-1.121-22.551c-.658-32.99 3.062-55.116 3.217-56.044l2.947-17.312L85.59 41.286c.773.542 18.925 13.737 41.577 37.766a344 344 0 0 1 8.306 9.077l-.618 1.974a334.2 334.2 0 0 0-14.432 80.305 331 331 0 0 0-36.04-30.932 372 372 0 0 0-18.074-12.575m242.271 0c.658-8.149.967-15.756 1.122-22.551.657-32.99-3.063-55.116-3.217-56.044l-2.947-17.312-14.23 10.292c-.781.542-18.933 13.737-41.585 37.766a352 352 0 0 0-8.299 9.077l.619 2.012a334.3 334.3 0 0 1 14.424 80.306 331 331 0 0 1 36.039-30.932q8.852-6.556 18.074-12.576z" clip-rule="evenodd"/><path fill="#000" fill-rule="evenodd" d="M187.446 355.83C99.914 360.017 12.374 286.784 1.199 121.871L0 104.327l16.288 6.64c2.877 1.16 65.165 27.008 113.803 84.53a283 283 0 0 1-.116-8.11c0-67.614 22.15-130.646 57.525-187.387 35.375 56.702 57.517 119.773 57.517 187.387 0 2.709-.039 5.433-.116 8.11 48.646-57.522 110.934-83.37 113.804-84.53l16.295-6.64-1.207 17.544c-11.175 164.913-98.722 238.153-186.262 233.959zm-19.273-72.814c-4.462 0-6.28 1.748-6.28 6.02 0 10.401 11.477 18.821 25.561 18.821 14.114 0 25.56-8.42 25.56-18.821 0-4.272-1.825-5.982-6.288-5.982-2.366.078-4.771.31-7.092.743l-.232.039a83 83 0 0 1-11.948 1.083 83 83 0 0 1-11.988-1.083 58 58 0 0 0-7.332-.774zm-45.962-41.488a20.53 20.53 0 0 1 14.54 6.02 20.6 20.6 0 0 1 4.456 6.675 20.6 20.6 0 0 1 1.56 7.875 20.57 20.57 0 0 1-12.687 19.008 20.5 20.5 0 0 1-7.869 1.561 20.53 20.53 0 0 1-14.541-6.02 20.55 20.55 0 0 1-6.016-14.549 20.56 20.56 0 0 1 12.688-19.009 20.5 20.5 0 0 1 7.869-1.561m130.439 0a20.54 20.54 0 0 1 14.545 6.017 20.57 20.57 0 0 1 6.02 14.553 20.56 20.56 0 0 1-12.693 19.01 20.5 20.5 0 0 1-7.872 1.559 20.53 20.53 0 0 1-14.54-6.02 20.55 20.55 0 0 1-6.017-14.549 20.564 20.564 0 0 1 12.688-19.009 20.5 20.5 0 0 1 7.869-1.561" clip-rule="evenodd"/></svg>
